X: 120
T:Valse  Bonnejoie
M:3/4
L:1/4
O:France
A:Massif Central
K:D
FAB|Ade|fdB|A3|GFG|BAG|1F3|E3:|2FGE|D3||
F F/2A/2F/2A/2|F F/2A/2F/2A/2|F F/2A/2F/2A/2|G3|
E/2F/2 G/2A/2 G|G F/2G/2 F/2E/2|G F/2G/2 F/2E/2|1F2D:|2D3:||
W:
W: From "Falaleiro" http://home.t-online.de/home/pheld/homepage.htm
